X:62
T:Fisherman's Lilt (reel), The 
T:The Kerryman's Daughter 
B:CRE1.126 (Streanncan an Iascaire)
F:file ID: cre.1/062fish_L
S:George Rawley
M:C
L:1/8
Q:180
R:reel
K:Am
cA|GEE2 GAcd|(3e^fg de cAAc|GEE2 GAcd|(3e^fg de c3A|
GEE2 GAcd|(3e^fg de cAAc|GEE2 GAcd|(3e^fg de c2||
zd|egg2 eaa2|gede cAA2|egg2 eaa2|bage a3z|
egg2 eaa^f|gede cAA2|GEE2 GAcd|(3e^fg de c2"_DC"||

%%%

